X: 16399
T: Gypsie's Lullaby
R: reel
M: 4/4
K: Dmajor
|:A>G|FDFA dfed|g2<(B2 B2)>B2|Ac e3 d/c/df|A6 A>G|
FDFA dfed|g(B3B2)B=c|caBg AfGe|d6:|
|:a>g|fdAF Ddc=c|B (g3g3)B|(3Ace a>g eA ca/g/|f6 a>g|
fdAF Ddc=c|B (g3g2) B=c|caBgAfGe|d6:|

